src/images/single-assets/DVI.svg

<svg width="96" height="96" viewBox="0 0 96 96" fill="none" xmlns="http://www.w3.org/2000/svg">
<circle cx="48" cy="48" r="48" fill="#212630"/>
<path fill-rule="evenodd" clip-rule="evenodd" d="M78.8772 37.7601C78.9263 37.8146 78.9622 37.8799 78.9822 37.9508C78.9998 38.0137 79.0044 38.0796 78.9958 38.1444C78.9872 38.2091 78.9655 38.2714 78.9321 38.3273L78.7488 38.6179V38.658H78.7229L51.47 81.8292C51.4594 81.8533 51.447 81.8765 51.4329 81.8987C51.3901 81.9498 51.3369 81.991 51.277 82.0192C51.217 82.0475 51.1517 82.0622 51.0856 82.0624H34.2524C34.2295 82.0601 34.2068 82.0557 34.1846 82.0493C34.1781 82.0485 34.1716 82.0485 34.1652 82.0493H34.1587C34.1553 82.049 34.1526 82.0466 34.1499 82.0442C34.1468 82.0415 34.1436 82.0387 34.1394 82.0387C34.0599 82.0181 33.9874 81.9762 33.9293 81.9175C33.923 81.9103 33.9169 81.9028 33.9112 81.895C33.9091 81.8922 33.9071 81.8894 33.9051 81.8865C33.8627 81.8373 33.8306 81.7799 33.8106 81.7178V81.7088C33.8046 81.6905 33.8003 81.6716 33.7977 81.6524L33.7549 81.3348C33.7552 81.3326 33.7552 81.3304 33.7549 81.3283L33.683 80.793L25.0637 16.8805L25.0088 16.4712C25.0059 16.4501 25.0043 16.4288 25.0039 16.4074C25.0047 16.3577 25.0134 16.3085 25.0298 16.2617C25.0338 16.2494 25.0378 16.2372 25.0427 16.2257C25.0604 16.1796 25.0855 16.1367 25.117 16.0989C25.1398 16.072 25.1655 16.0478 25.1937 16.0268C25.1981 16.0241 25.2027 16.0216 25.2075 16.0195C25.234 16.0013 25.2624 15.9862 25.2923 15.9744C25.3035 15.9695 25.3151 15.9654 25.327 15.9622C25.3517 15.9543 25.3772 15.9488 25.4029 15.9458C25.4158 15.9436 25.4287 15.9423 25.4417 15.9417C25.4479 15.9413 25.4541 15.9413 25.4603 15.9417H42.2756H42.2991C42.3926 15.948 42.4818 15.9838 42.5543 16.044L78.6316 37.4058C78.6882 37.4357 78.7381 37.4771 78.7782 37.5273C78.8184 37.5776 78.8479 37.6357 78.8651 37.6979C78.8707 37.7183 78.8748 37.7391 78.8772 37.7601ZM41.2458 69.2028L47.5614 59.2176L43.3144 27.7152L34.9842 22.7619L41.2458 69.2028ZM44.3693 28.343L48.3611 57.9539L60.885 38.162L44.3693 28.343ZM61.9019 38.658L48.6034 59.7251L49.7593 68.2861L68.4986 38.658H61.9019ZM34.8001 21.3975L43.1278 26.3287L41.8831 17.1015H34.2201L34.8001 21.3975ZM47.7997 60.9929L41.4889 70.9944L42.6383 79.5358L48.954 69.5507L47.7997 60.9929ZM61.8365 37.4058C61.8652 37.4208 61.8923 37.4389 61.9172 37.4598H76.5251L42.9032 17.4689L44.1819 26.9524L61.8365 37.4058ZM33.9293 81.9197C33.9202 81.9095 33.9118 81.8988 33.9041 81.8875C33.9133 81.9027 33.9192 81.9095 33.9293 81.9197ZM34.1383 82.0393C34.0588 82.0187 33.9863 81.9769 33.9283 81.9182C33.9859 81.9774 34.0586 82.0194 34.1383 82.0393Z" fill="white"/>
</svg>

<svg xmlns="http://www.w3.org/2000/svg" width="96" height="96" fill="none"><circle cx="48" cy="48" r="48" fill="#212630"/><path fill="#fff" fill-rule="evenodd" d="M78.877 37.76a.48.48 0 0 1 .055.567l-.183.29v.041h-.026L51.47 81.829a1 1 0 0 1-.037.07.46.46 0 0 1-.347.163H34.252a.4.4 0 0 1-.067-.013h-.026q-.005 0-.01-.005-.003-.004-.01-.005a.46.46 0 0 1-.228-.144l-.006-.008a.5.5 0 0 1-.094-.17v-.008a.3.3 0 0 1-.013-.057l-.043-.317v-.007l-.072-.535-8.62-63.913-.054-.409-.005-.064a.5.5 0 0 1 .039-.181.45.45 0 0 1 .15-.2l.014-.006a.4.4 0 0 1 .196-.074.3.3 0 0 1 .057-.004H42.3a.45.45 0 0 1 .255.102l36.078 21.362a.47.47 0 0 1 .245.354M41.246 69.203l6.315-9.985-4.247-31.503-8.33-4.953zm3.123-40.86 3.992 29.61 12.524-19.791zm17.533 10.315L48.603 59.725l1.156 8.561L68.5 38.658zM34.8 21.398l8.328 4.93-1.245-9.226H34.22zm13 39.595-6.311 10.001 1.15 8.542 6.315-9.985zm14.037-23.587a.5.5 0 0 1 .08.054h14.608L42.903 17.469l1.279 9.483zM34.139 82.04" clip-rule="evenodd"/></svg>
